src/components/Icon/svg-icon/main/user-relationship.svg

<svg xmlns="http://www.w3.org/2000/svg" width="24" height="24"><path fill="#677078" d="M16.5 12c1.38 0 2.49-1.12 2.49-2.5S17.88 7 16.5 7a2.5 2.5 0 000 5zM9 11c1.66 0 2.99-1.34 2.99-3S10.66 5 9 5C7.34 5 6 6.34 6 8s1.34 3 3 3zm7.5 3c-1.83 0-5.5.92-5.5 2.75V19h11v-2.25c0-1.83-3.67-2.75-5.5-2.75zM9 13c-2.33 0-7 1.17-7 3.5V19h7v-2.25c0-.85.33-2.34 2.37-3.47C10.5 13.1 9.66 13 9 13z"/></svg>

<svg xmlns="http://www.w3.org/2000/svg" width="24" height="24" viewBox="0 0 24 24">
  <path fill="#677078" d="M16.5,12 C17.88,12 18.99,10.88 18.99,9.5 C18.99,8.12 17.88,7 16.5,7 C15.12,7 14,8.12 14,9.5 C14,10.88 15.12,12 16.5,12 Z M9,11 C10.66,11 11.99,9.66 11.99,8 C11.99,6.34 10.66,5 9,5 C7.34,5 6,6.34 6,8 C6,9.66 7.34,11 9,11 Z M16.5,14 C14.67,14 11,14.92 11,16.75 L11,19 L22,19 L22,16.75 C22,14.92 18.33,14 16.5,14 Z M9,13 C6.67,13 2,14.17 2,16.5 L2,19 L9,19 L9,16.75 C9,15.9 9.33,14.41 11.37,13.28 C10.5,13.1 9.66,13 9,13 Z"/>
</svg>
